X:152
U: ~ = !turn!
%%topmargin 3cm
T:O'Rourke's
B:Traditional Irish Fiddle Tunes. Randy Miller and Jack Perron.
Z:Transcribed by Ralph Palmer
S:Michael Coleman
R:Reel
L:1/8
M:C|
K:D
ed | ((3cBA) eAfAe | ((3cBA) ec dfed | cA (3.A.A.A fd (3.d.d.d | [1 fage d2 :| [2 fage d2 ef ||
((3gag) ((3fgf) edef | {/a}gfed ea ~a2 | gefd ed (3.d.d.d | fage d2 ef |
gafg edef | gfed da a2 | ((3agf) ((3gfe) gfed | da{/b}ag {/b}aged |]
